X:25
T:Meeting Of The Waters. CAM2.[26], The
B:Anon MS#2, early 19thC, Northumbria, Cocks Coll.
Z:Village Music Project 2016 Steve Mansfield
M:6/8
L:1/8
Q:3/8=75
N:* BAG G<ED2 in Mss
K:G
d>c | BAG AGE | DEG G2 A/B/ | cBA ABA | dBG A2 A/B/ |
cBA ABG | dBG HA2 G/A/ | BAG GED | DEG Hc2 B/A/ |
"*"BAG G<ED | DEG G2 |]

